governance/ui/public/councils/advisory.svg

<svg width="60" height="60" viewBox="0 0 60 60" fill="none" xmlns="http://www.w3.org/2000/svg">
<path fill-rule="evenodd" clip-rule="evenodd" d="M41.3757 19.6529C40.5094 17.8936 39.2454 16.3602 37.6837 15.1741L39.6494 12.5859C41.6129 14.0772 43.2022 16.0052 44.2914 18.2172C45.3799 20.4276 45.9391 22.8609 45.9249 25.3247C45.9249 25.6892 45.9248 30.5445 45.9087 35.3923C45.9005 37.8266 45.8883 40.2623 45.87 42.1273C45.8608 43.059 45.8501 43.8535 45.8374 44.436C45.8311 44.7261 45.8242 44.9716 45.8164 45.1582C45.8125 45.2506 45.808 45.3385 45.8025 45.4147L45.8021 45.4207C45.799 45.4649 45.7886 45.6116 45.7562 45.7575L45.6212 46.3649L41.2443 49.4947L41.2368 49.5001L34.7449 54.1987V37.4595L38.7532 35.2928V29.6952L33.7916 32.2481V40.8572L32.4197 41.0735C30.8164 41.3263 29.1834 41.3263 27.5801 41.0735L26.2082 40.8572V32.2432L21.3332 29.7082V35.2928L25.3416 37.4595V54.1585L18.7692 49.5045L18.763 49.5001L14.2049 46.2407V45.405C14.2049 45.0981 14.1725 40.2333 14.1399 35.3571L14.1377 35.0222C14.1062 30.2935 14.0752 25.6535 14.0749 25.3241C14.0625 22.8608 14.6225 20.4283 15.7107 18.2183C16.7996 16.007 18.3876 14.079 20.3494 12.5867L22.3171 15.1733C20.7562 16.3607 19.4927 17.8946 18.6264 19.6541C17.76 21.4135 17.3144 23.3502 17.3249 25.3113L17.3249 25.32C17.3249 25.6017 17.3565 30.3389 17.3887 35.1532L17.3899 35.3354C17.4151 39.1186 17.4404 42.9153 17.4504 44.5661L20.6473 46.8521L20.6535 46.8565L22.0916 47.8748V39.3972L18.0832 37.2305V24.3551L29.4582 30.2701V38.0012C29.8192 38.0171 30.1806 38.0171 30.5416 38.0012V30.2653L42.0032 24.3681V37.2305L37.9949 39.3972V47.8346L39.3464 46.8565L42.5842 44.5412C42.5855 44.4856 42.5869 44.427 42.5882 44.3654C42.6004 43.8025 42.611 43.0233 42.6201 42.0954C42.6384 40.2411 42.6505 37.814 42.6587 35.3814C42.6749 30.5174 42.6749 25.6447 42.6749 25.32V25.3101C42.6868 23.3491 42.2421 21.4122 41.3757 19.6529ZM42.5587 45.2069C42.5587 45.2069 42.5591 45.2005 42.5602 45.1907C42.5592 45.2027 42.5587 45.2069 42.5587 45.2069ZM14.0749 25.3241L14.0749 25.32H15.6999L14.0749 25.3287L14.0749 25.3241Z" fill="#FFFFFF"/>
<path d="M26.8065 10.6323C26.7698 10.5783 26.7199 10.5345 26.6614 10.5053C26.603 10.4761 26.538 10.4624 26.4728 10.4655H23.8273V8.65415H26.6158C26.9619 8.65706 27.3032 8.73532 27.6161 8.88349C27.9289 9.03167 28.2056 9.24619 28.4272 9.51216L29.0945 10.3225L27.7836 11.8955L26.8065 10.6323ZM31.5732 9.41682C31.7943 9.15825 32.0683 8.95001 32.3766 8.80613C32.6849 8.66225 33.0205 8.58605 33.3607 8.58265H36.1016V10.3225H33.5276C33.4659 10.3212 33.405 10.3359 33.3507 10.3652C33.2964 10.3944 33.2506 10.4372 33.2177 10.4893L31.2872 12.8727L33.2177 15.256C33.2568 15.2998 33.3045 15.3351 33.3578 15.3597C33.4111 15.3843 33.4689 15.3977 33.5276 15.399H36.1731V17.401H33.3846C33.0425 17.3947 32.7058 17.3148 32.3973 17.1667C32.0889 17.0187 31.8159 16.806 31.597 16.543L30.0002 14.541L28.4272 16.4715C28.2056 16.7375 27.9289 16.952 27.6161 17.1002C27.3032 17.2484 26.9619 17.3266 26.6158 17.3295H23.8273V15.4467H26.4728C26.5985 15.4449 26.7185 15.3935 26.8065 15.3037L28.6655 12.9203L31.5732 9.41682Z" fill="#FFFFFF"/>
</svg>

<svg width="60" height="60" fill="none" viewBox="0 0 60 60" xmlns="http://www.w3.org/2000/svg">
  <path fill="#FFF" fill-rule="evenodd" d="M41.376 19.653a12.6 12.6 0 0 0-3.692-4.479l1.965-2.588a15.88 15.88 0 0 1 6.276 12.739c0 .364 0 5.22-.016 10.067-.008 2.435-.02 4.87-.039 6.735-.01.932-.02 1.726-.033 2.309-.006.29-.013.536-.02.722l-.014.257v.006c-.004.044-.014.19-.047.337l-.135.607-4.377 3.13-.007.005-6.492 4.699v-16.74l4.008-2.166v-5.598l-4.961 2.553v8.61l-1.372.216a15.5 15.5 0 0 1-4.84 0l-1.372-.217v-8.614l-4.875-2.535v5.585l4.009 2.166v16.7l-6.573-4.654-.006-.005-4.558-3.26v-.835c0-.307-.033-5.172-.065-10.048l-.002-.335c-.032-4.728-.063-9.368-.063-9.698a15.9 15.9 0 0 1 6.274-12.737l1.968 2.586a12.65 12.65 0 0 0-4.992 10.138v.009c0 .282.032 5.019.064 9.833v.182l.061 9.231 3.197 2.286.007.005 1.438 1.018v-8.478l-4.009-2.166V24.355l11.375 5.915v7.731q.542.024 1.084 0v-7.736l11.461-5.897v12.863l-4.008 2.166v8.438l1.351-.979 3.238-2.315.004-.176c.012-.562.023-1.342.032-2.27.018-1.854.03-4.281.039-6.714.016-4.864.016-9.736.016-10.061v-.01a12.6 12.6 0 0 0-1.3-5.657m1.183 25.554.001-.016zM14.075 25.324v-.004H15.7l-1.625.009z" clip-rule="evenodd"/>
  <path fill="#FFF" d="M26.807 10.632a.38.38 0 0 0-.334-.166h-2.646V8.654h2.789a2.38 2.38 0 0 1 1.811.858l.668.81-1.311 1.574zm4.766-1.215a2.38 2.38 0 0 1 1.788-.834h2.74v1.74h-2.573a.36.36 0 0 0-.31.166l-1.93 2.384 1.93 2.383a.43.43 0 0 0 .31.143h2.645v2.002h-2.788a2.38 2.38 0 0 1-1.788-.858L30 14.541l-1.573 1.93a2.38 2.38 0 0 1-1.811.858h-2.789v-1.882h2.646a.48.48 0 0 0 .334-.143l1.859-2.384z"/>
</svg>
